packages/icons/svg/Fill/clock.svg

<svg fill="none" height="24" viewBox="0 0 24 24" width="24" xmlns="http://www.w3.org/2000/svg"><path clip-rule="evenodd" d="m16 13.0001h-4c-.552 0-1-.447-1-1v-4.00004c0-.553.448-1 1-1s1 .447 1 1v3.00004h3c.553 0 1 .447 1 1s-.447 1-1 1zm-4-11.0001c-5.51397 0-9.99997 4.486-9.99997 10s4.486 10 9.99997 10c5.514 0 10-4.486 10-10s-4.486-10-10-10z" fill="#6b7280" fill-rule="evenodd"/></svg>

<svg width="24" height="24" viewBox="0 0 24 24" fill="none" xmlns="http://www.w3.org/2000/svg">
<g id="Icon/Fill/clock">
<path id="Mask" fill-rule="evenodd" clip-rule="evenodd" d="M16 13H12C11.448 13 11 12.553 11 12V8C11 7.447 11.448 7 12 7C12.552 7 13 7.447 13 8V11H16C16.553 11 17 11.447 17 12C17 12.553 16.553 13 16 13ZM12 2C6.486 2 2 6.486 2 12C2 17.514 6.486 22 12 22C17.514 22 22 17.514 22 12C22 6.486 17.514 2 12 2Z" fill="#000000"/>
</g>
</svg>
